X:10
T:3 Valses
O:France
A:Alsace
C:Trad.
Z:Transcrit et/ou corrigé par Michel BELLON - 2006-05-29
Z:Pour toute observation mailto:galouvielle@free.fr
M:3/4
L:1/4
K:C
T:1.
E2E | G2G | FFF | E/F/ G/A/ G | E2E | G2G | FFF | E3 :|
T:2.
E2G | E2G | FED | A2G | E2G | E2G | FED | C3 :|
T:3.
G2E | G2E | AAc | G3 | cBA | GAG | FED | G3 | cBA | GAG | FED | C3 :|

%%footer $D   Galouvielle-MBe 2006 \n-- (France)
